; generated by AnkerMake Studio 1.5.22 on 2024-07-07 at 07:37:56 UTC

;MINX:97.407
;MINY:104.962
;MINZ:0.14
;MAXX:137.599
;MAXY:130.035
;MAXZ:15.94

; filament_type = "AnkerMake PLA+ Basic"
;Filament Name:AnkerMake PLA+ Basic
;Machine Name:AnkerMake M5
;Profile Name:Normal - M5 0.4mm - PLA+ Basic
;multi_model:true
;support_enable:true
;damaged:false
;repaired:false
;adhesion_type:outer_and_inner
;perimeter_flow_ratio:1
;Machine Nozzle Size:0.4
;Print Mode:Normal - M5 0.4mm - PLA+ Basic
;Filament weight: 2.19893g
;Filament used: 737.266mm
;Layer height: 0.2
;material_print_temperature_layer_0: 230
;speed_infill: 250
;speed_wall_0: 150
;speed_wall_x: 250
;acceleration_print: 2500
;acceleration_travel: 0
;MAXSPEED:15000
;TIME:743.799s

;
;
; PRINT_COMPATIBLE
;  P_NORMAL
;  F_PLA__Basic
; 

; external perimeters extrusion width = 0.44mm
; perimeters extrusion width = 0.40mm
; infill extrusion width = 0.40mm
; solid infill extrusion width = 0.40mm
; top infill extrusion width = 0.40mm
; support material extrusion width = 0.30mm
; first layer extrusion width = 0.44mm

; external perimeters extrusion width = 0.44mm
; perimeters extrusion width = 0.40mm
; infill extrusion width = 0.40mm
; solid infill extrusion width = 0.40mm
; top infill extrusion width = 0.40mm
; support material extrusion width = 0.30mm
; first layer extrusion width = 0.44mm

M73 P0 R12
;TYPE:Custom
M104 S230 ; set final nozzle temp
M190 S65 ; set and wait for bed temp to stabilize
M109 S230 ; wait for nozzle temp to stabilize
G28 ;Home
;LAYER_COUNT:101
G21 ; set units to millimeters
G90 ; use absolute coordinates
M83 ; use relative distances for extrusion
; Filament gcode
M107
;LAYER_CHANGE
;Z:0.14
;HEIGHT:0.14
;BEFORE_LAYER_CHANGE
;0.14
;LAYER:1
G1 E-3 F3600
;AFTER_LAYER_CHANGE
G92 E0
M205 X10 Y10
G17
G3 Z.14 I-.32 J.281 P1  F9000
G1 X91.08 Y103.827
G1 E3 F3600
M204 P2500
;TYPE:Skirt/Brim
;WIDTH:0.44
G1 E0 F3000
G1 X92.03 Y103.08 E.02884
G1 X93.052 Y102.436 E.02882
G1 X94.85 Y101.621 E.0471
G1 X113.857 Y94.913 E.48095
G1 X115.55 Y94.423 E.04206
G1 X116.636 Y94.224 E.02635
G1 X118.22 Y94.11 E.03789
G1 X137.575 Y94.115 E.46184
G1 X139.698 Y94.355 E.05098
G1 X141.811 Y94.951 E.05239
G1 X143.044 Y95.503 E.03224
G1 X144.203 Y96.194 E.0322
G1 X145.904 Y97.601 E.05267
G1 X147.225 Y99.181 E.04914
G1 X147.762 Y100.011 E.02359
G1 X148.394 Y101.241 E.033
G1 X148.998 Y102.981 E.04395
G1 X149.348 Y105.159 E.05264
G1 X149.358 Y107.159 E.04772
G1 X149.212 Y108.502 E.03223
G1 X148.964 Y109.649 E.028
G1 X143.188 Y129.841 E.50114
G1 X142.509 Y131.427 E.04117
G1 X141.743 Y132.723 E.03592
G1 X140.903 Y133.812 E.03282
G1 X139.958 Y134.776 E.03221
G1 X138.907 Y135.624 E.03222
G1 X137.765 Y136.345 E.03223
G1 X136.547 Y136.928 E.03222
G1 X135.073 Y137.419 E.03707
G1 X115.096 Y141.577 E.4869
G1 X113.381 Y141.75 E.04113
G1 X97.387 Y141.764 E.38164
G1 X95.795 Y141.65 E.03808
G1 X93.648 Y141.14 E.05266
G1 X92.061 Y140.461 E.04119
G1 X90.344 Y139.395 E.04822
G1 X88.712 Y137.91 E.05265
G1 X87.864 Y136.859 E.03222
G1 X86.915 Y135.281 E.04394
G1 X86.2 Y133.492 E.04597
G1 X85.791 Y131.602 E.04614
G1 X85.678 Y130.055 E.03701
G1 X85.678 Y114.407 E.37339
G1 X85.735 Y113.304 E.02635
G1 X85.941 Y111.969 E.03223
G1 X86.301 Y110.668 E.03221
G1 X87.241 Y108.596 E.05429
G1 X88.013 Y107.406 E.03385
G1 X89.921 Y104.997 E.07333
G1 X91.038 Y103.87 E.03786
G1 X91.328 Y104.157 F9000
G1 E0 F3000
G1 X91.34 Y104.145 E.0004
G1 X92.255 Y103.423 E.02781
G1 X93.24 Y102.8 E.02781
G1 X94.999 Y102.003 E.04608
G1 X113.993 Y95.3 E.48062
G1 X115.644 Y94.822 E.04101
G1 X116.708 Y94.628 E.02581
G1 X118.22 Y94.52 E.03617
G1 X137.552 Y94.524 E.46129
G1 X139.628 Y94.759 E.04985
G1 X141.652 Y95.328 E.05017
G1 X142.841 Y95.859 E.03107
G1 X143.961 Y96.525 E.03109
G1 X145.625 Y97.901 E.05152
G1 X146.881 Y99.404 E.04674
G1 X147.418 Y100.234 E.02359
G1 X148.025 Y101.42 E.03179
G1 X148.597 Y103.069 E.04165
G1 X148.94 Y105.201 E.05153
G1 X148.95 Y107.124 E.04589
G1 X148.811 Y108.419 E.03108
G1 X148.569 Y109.537 E.0273
G1 X142.795 Y129.723 E.50099
G1 X142.136 Y131.257 E.03984
G1 X141.395 Y132.506 E.03465
G1 X140.584 Y133.554 E.03162
G1 X139.671 Y134.483 E.03108
G1 X138.656 Y135.3 E.03109
G1 X137.554 Y135.994 E.03108
G1 X136.378 Y136.554 E.03108
G1 X134.982 Y137.019 E.03511
G1 X115.012 Y141.176 E.48673
G1 X113.347 Y141.341 E.03992
G1 X97.387 Y141.354 E.38083
G1 X95.866 Y141.246 E.03638
G1 X93.765 Y140.748 E.05152
G1 X92.231 Y140.088 E.03985
G1 X90.602 Y139.076 E.04576
G1 X89.005 Y137.623 E.05152
G1 X87.937 Y136.242 E.04166
G1 X87.288 Y135.112 E.03109
G1 X86.589 Y133.362 E.04497
G1 X86.199 Y131.569 E.04378
G1 X86.088 Y130.055 E.03622
G1 X86.088 Y114.407 E.37339
M73 P1 R12
G1 X86.144 Y113.327 E.02581
G1 X86.345 Y112.04 E.03108
G1 X86.694 Y110.785 E.03108
G1 X87.589 Y108.813 E.05167
G1 X88.335 Y107.66 E.03277
G1 X90.24 Y105.254 E.07323
G1 X91.286 Y104.2 E.03543
G1 X91.57 Y104.491 F9000
G1 E0 F3000
G1 X91.6 Y104.462 E.001
G1 X93.122 Y103.344 E.04506
G1 X94.11 Y102.811 E.02679
G1 X95.149 Y102.385 E.0268
G1 X114.13 Y95.686 E.4803
G1 X115.739 Y95.22 E.03997
G1 X116.779 Y95.031 E.02522
G1 X118.22 Y94.93 E.03447
G1 X137.528 Y94.933 E.46072
G1 X139.558 Y95.163 E.04875
G1 X141.492 Y95.706 E.04793
G1 X143.385 Y96.64 E.05037
G1 X144.411 Y97.363 E.02995
G1 X145.345 Y98.201 E.02994
G1 X146.536 Y99.626 E.04432
G1 X147.074 Y100.457 E.02362
G1 X147.656 Y101.598 E.03056
G1 X148.197 Y103.158 E.0394
G1 X148.446 Y104.388 E.02995
G1 X148.55 Y105.576 E.02846
G1 X148.467 Y107.943 E.05652
G1 X148.175 Y109.424 E.03602
G1 X142.403 Y129.605 E.50086
G1 X141.763 Y131.087 E.03852
G1 X141.047 Y132.289 E.03338
G1 X140.265 Y133.296 E.03042
G1 X139.385 Y134.19 E.02993
G1 X138.406 Y134.976 E.02996
G1 X137.342 Y135.642 E.02995
G1 X136.209 Y136.181 E.02994
G1 X134.892 Y136.62 E.03313
G1 X114.929 Y140.774 E.48655
G1 X113.314 Y140.933 E.03872
G1 X97.387 Y140.944 E.38004
G1 X95.937 Y140.842 E.03468
G1 X93.883 Y140.355 E.05037
G1 X92.401 Y139.715 E.03852
G1 X90.86 Y138.758 E.04328
G1 X89.298 Y137.337 E.05039
G1 X88.513 Y136.358 E.02994
G1 X87.662 Y134.943 E.0394
G1 X86.977 Y133.231 E.044
G1 X86.608 Y131.535 E.04142
G1 X86.498 Y130.055 E.03541
G1 X86.498 Y114.407 E.37339
G1 X86.554 Y113.351 E.02523
G1 X86.749 Y112.112 E.02993
G1 X87.087 Y110.903 E.02995
G1 X87.937 Y109.03 E.04908
G1 X88.657 Y107.913 E.03171
G1 X90.079 Y106.11 E.05479
G1 X90.796 Y105.246 E.02679
G1 X91.527 Y104.533 E.02437
G1 E-3 F3600
G1 X93.897 Y107.253 F9000
G1 E3 F3600
G1 E0 F3000
G1 X94.475 Y106.78 E.01782
G1 X95.099 Y106.37 E.01782
G1 X95.762 Y106.027 E.01781
G1 X96.457 Y105.755 E.01781
G1 X97.177 Y105.556 E.01782
G1 X97.913 Y105.434 E.0178
G1 X98.728 Y105.388 E.01948
G1 X100.564 Y105.388 E.04381
G1 X101.315 Y105.427 E.01794
G1 X102.053 Y105.543 E.01783
G1 X102.774 Y105.735 E.0178
G1 X103.472 Y106.001 E.01782
G1 X104.138 Y106.339 E.01782
G1 X104.766 Y106.743 E.01782
G1 X105.083 Y106.998 E.00971
G1 X105.216 Y107.043 E.00335
G1 X105.341 Y106.997 E.00318
G1 X105.605 Y106.78 E.00815
G1 X106.229 Y106.37 E.01782
G1 X106.892 Y106.027 E.01781
G1 X107.588 Y105.755 E.01783
G1 X108.308 Y105.556 E.01782
G1 X109.044 Y105.434 E.0178
G1 X109.858 Y105.388 E.01945
G1 X110.479 Y105.388 E.01482
G1 X110.611 Y105.339 E.00336
G1 X110.683 Y105.2 E.00374
G1 X110.712 Y104.868 E.00795
G1 X110.881 Y104.05 E.01993
G1 X111.143 Y103.258 E.01991
G1 X111.495 Y102.502 E.0199
G1 X111.995 Y101.705 E.02245
G1 X112.598 Y100.952 E.02302
G1 X113.196 Y100.371 E.01989
G1 X113.859 Y99.863 E.01993
G1 X114.575 Y99.435 E.0199
G1 X115.336 Y99.094 E.0199
G1 X116.24 Y98.817 E.02256
G1 X116.566 Y98.739 E.008
G1 X117.394 Y98.594 E.02006
G1 X118.228 Y98.545 E.01993
G1 X123.139 Y98.542 E.11718
G1 X124.126 Y98.593 E.02358
G1 X125.169 Y98.716 E.02506
G1 X130.516 Y98.714 E.12759
G1 X131.432 Y98.595 E.02204
G1 X132.435 Y98.542 E.02397
G1 X137.323 Y98.542 E.11664
G1 X138.163 Y98.591 E.02008
G1 X138.938 Y98.725 E.01877
G1 X139.288 Y98.805 E.00857
G1 X140.095 Y99.04 E.02006
G1 X140.864 Y99.365 E.01992
G1 X141.59 Y99.777 E.01992
G1 X142.263 Y100.271 E.01992
G1 X142.874 Y100.839 E.01991
G1 X143.509 Y101.602 E.02369
G1 X144.033 Y102.411 E.023
G1 X144.396 Y103.162 E.0199
G1 X144.67 Y103.95 E.01991
G1 X144.851 Y104.766 E.01994
G1 X144.935 Y105.595 E.01988
G1 X144.922 Y106.191 E.01422
G1 X144.939 Y106.786 E.0142
G1 X144.866 Y107.618 E.01993
G1 X144.698 Y108.435 E.0199
G1 X144.435 Y109.228 E.01994
G1 X144.083 Y109.983 E.01988
G1 X143.54 Y110.842 E.02425
G1 X143.017 Y111.494 E.01994
G1 X142.422 Y112.079 E.01991
G1 X141.764 Y112.592 E.01991
G1 X141.05 Y113.025 E.01993
G1 X140.291 Y113.372 E.01991
G1 X139.519 Y113.618 E.01933
G1 X139.408 Y113.705 E.00337
G1 X139.377 Y113.814 E.0027
G1 X139.377 Y126.095 E.29304
G1 X139.328 Y126.935 E.02008
G1 X139.183 Y127.757 E.01992
G1 X138.944 Y128.555 E.01988
G1 X138.478 Y129.577 E.0268
G1 X137.987 Y130.365 E.02215
G1 X137.462 Y131.014 E.01992
G1 X136.865 Y131.598 E.01993
G1 X136.205 Y132.108 E.0199
G1 X135.489 Y132.538 E.01993
G1 X134.728 Y132.883 E.01994
G1 X134.087 Y133.095 E.01611
G1 X133.273 Y133.279 E.01991
G1 X132.094 Y133.376 E.02823
G1 X123.482 Y133.376 E.2055
G1 X122.642 Y133.327 E.02008
G1 X121.82 Y133.182 E.01992
G1 X121.022 Y132.943 E.01988
G1 X120.096 Y132.521 E.02428
G1 X119.955 Y132.51 E.00337
G1 X119.824 Y132.622 E.00411
G1 X119.411 Y133.53 E.0238
G1 X118.919 Y134.319 E.02219
G1 X118.394 Y134.967 E.0199
G1 X117.798 Y135.551 E.01991
G1 X117.137 Y136.062 E.01994
G1 X116.422 Y136.492 E.01991
G1 X115.66 Y136.837 E.01996
G1 X115.072 Y137.034 E.0148
G1 X114.205 Y137.232 E.02122
G1 X113.027 Y137.329 E.0282
G1 X97.393 Y137.329 E.37305
G1 X96.554 Y137.28 E.02005
G1 X95.731 Y137.135 E.01994
G1 X94.934 Y136.896 E.01985
G1 X93.912 Y136.431 E.02679
G1 X93.123 Y135.939 E.02219
M73 P2 R12
G1 X92.474 Y135.414 E.01992
G1 X91.891 Y134.818 E.01989
G1 X91.38 Y134.157 E.01994
G1 X90.95 Y133.442 E.01991
G1 X90.605 Y132.68 E.01996
G1 X90.408 Y132.092 E.0148
G1 X90.209 Y131.225 E.02123
G1 X90.113 Y130.046 E.02823
G1 X90.113 Y114.413 E.37303
G1 X90.162 Y113.573 E.02008
G1 X90.307 Y112.751 E.01992
G1 X90.546 Y111.954 E.01985
G1 X91.011 Y110.932 E.02679
G1 X91.503 Y110.143 E.02219
G1 X92.027 Y109.494 E.0199
G1 X92.464 Y109.06 E.0147
G1 X92.904 Y108.365 E.01963
G1 X93.371 Y107.783 E.01781
G1 X93.855 Y107.296 E.01638
G1 X94.146 Y107.584 F9000
G1 E0 F3000
G1 X94.173 Y107.557 E.00091
G1 X94.718 Y107.111 E.0168
G1 X95.306 Y106.724 E.0168
G1 X95.931 Y106.401 E.01679
G1 X96.587 Y106.144 E.01681
G1 X97.265 Y105.957 E.01678
G1 X97.959 Y105.842 E.01679
G1 X98.739 Y105.798 E.01864
G1 X100.553 Y105.798 E.04328
G1 X101.272 Y105.835 E.01718
G1 X101.968 Y105.945 E.01681
G1 X102.648 Y106.126 E.01679
G1 X103.306 Y106.377 E.0168
G1 X103.934 Y106.695 E.0168
G1 X104.525 Y107.076 E.01678
G1 X104.826 Y107.317 E.0092
G1 X104.951 Y107.386 E.00341
G1 X105.085 Y107.431 E.00337
G1 X105.359 Y107.427 E.00654
G1 X105.6 Y107.314 E.00635
G1 X105.848 Y107.111 E.00765
G1 X106.437 Y106.724 E.01682
G1 X107.062 Y106.401 E.01679
G1 X107.717 Y106.144 E.01679
G1 X108.396 Y105.957 E.01681
G1 X109.089 Y105.842 E.01676
G1 X109.87 Y105.798 E.01867
G1 X110.479 Y105.798 E.01453
G1 X110.62 Y105.773 E.00342
G1 X110.752 Y105.724 E.00336
G1 X110.975 Y105.528 E.00708
G1 X111.047 Y105.389 E.00374
G1 X111.091 Y105.236 E.0038
G1 X111.118 Y104.927 E.0074
G1 X111.277 Y104.156 E.01878
G1 X111.525 Y103.409 E.01878
G1 X111.856 Y102.698 E.01871
G1 X112.329 Y101.943 E.02126
G1 X112.902 Y101.229 E.02185
G1 X113.465 Y100.682 E.01873
G1 X114.089 Y100.203 E.01877
G1 X114.765 Y99.8 E.01878
G1 X115.481 Y99.479 E.01872
G1 X116.347 Y99.213 E.02162
G1 X116.649 Y99.141 E.00741
G1 X117.442 Y99.001 E.01921
G1 X118.24 Y98.955 E.01907
G1 X123.129 Y98.952 E.11666
G1 X124.092 Y99.002 E.02301
G1 X125.169 Y99.126 E.02587
G1 X130.516 Y99.124 E.12759
G1 X131.47 Y99.003 E.02295
G1 X132.446 Y98.952 E.02332
G1 X137.312 Y98.952 E.11611
G1 X138.116 Y98.999 E.01922
G1 X138.857 Y99.127 E.01794
G1 X139.185 Y99.202 E.00803
G1 X139.958 Y99.427 E.01921
G1 X140.683 Y99.734 E.01879
G1 X141.367 Y100.122 E.01876
G1 X142.002 Y100.588 E.01879
G1 X142.575 Y101.121 E.01867
G1 X143.178 Y101.845 E.02248
G1 X143.675 Y102.613 E.02183
G1 X144.017 Y103.319 E.01872
G1 X144.275 Y104.062 E.01877
G1 X144.445 Y104.831 E.01879
G1 X144.525 Y105.612 E.01873
G1 X144.512 Y106.203 E.01411
G1 X144.528 Y106.774 E.01363
G1 X144.46 Y107.558 E.01878
G1 X144.301 Y108.329 E.01878
G1 X144.054 Y109.076 E.01877
G1 X143.723 Y109.786 E.01869
G1 X143.206 Y110.604 E.02309
G1 X142.712 Y111.218 E.0188
G1 X142.152 Y111.771 E.01878
G1 X141.531 Y112.254 E.01877
G1 X140.858 Y112.662 E.01878
G1 X140.143 Y112.989 E.01876
G1 X139.395 Y113.228 E.01874
G1 X139.268 Y113.294 E.00342
G1 X139.157 Y113.381 E.00337
G1 X139.014 Y113.591 E.00606
G1 X138.967 Y113.814 E.00544
G1 X138.967 Y126.084 E.29278
G1 X138.92 Y126.887 E.01919
G1 X138.783 Y127.662 E.01878
G1 X138.559 Y128.41 E.01863
G1 X138.116 Y129.382 E.02549
G1 X137.652 Y130.127 E.02094
G1 X137.158 Y130.738 E.01875
G1 X136.596 Y131.288 E.01876
G1 X135.973 Y131.769 E.01878
G1 X135.299 Y132.175 E.01878
G1 X134.578 Y132.501 E.01888
G1 X133.977 Y132.7 E.01511
G1 X133.211 Y132.873 E.01874
G1 X132.077 Y132.966 E.02715
G1 X123.494 Y132.966 E.2048
G1 X122.69 Y132.919 E.01922
G1 X121.915 Y132.782 E.01878
G1 X121.167 Y132.558 E.01863
G1 X120.266 Y132.148 E.02362
G1 X119.986 Y132.101 E.00677
G1 X119.788 Y132.135 E.00479
G1 X119.557 Y132.311 E.00693
G1 X119.451 Y132.452 E.00421
G1 X119.049 Y133.336 E.02317
G1 X118.584 Y134.08 E.02094
G1 X118.091 Y134.691 E.01873
G1 X117.528 Y135.241 E.01878
G1 X116.905 Y135.723 E.0188
G1 X116.231 Y136.128 E.01876
G1 X115.51 Y136.455 E.01889
G1 X114.961 Y136.639 E.01382
G1 X114.142 Y136.826 E.02005
G1 X113.01 Y136.919 E.0271
G1 X97.405 Y136.919 E.37236
G1 X96.601 Y136.872 E.01922
G1 X95.826 Y136.736 E.01878
G1 X95.078 Y136.511 E.01864
G1 X94.106 Y136.069 E.02548
G1 X93.361 Y135.604 E.02096
G1 X92.751 Y135.111 E.01871
G1 X92.2 Y134.548 E.0188
G1 X91.719 Y133.925 E.01878
G1 X91.314 Y133.251 E.01876
G1 X90.987 Y132.53 E.01889
G1 X90.803 Y131.981 E.01382
G1 X90.616 Y131.162 E.02005
G1 X90.523 Y130.03 E.0271
G1 X90.523 Y114.425 E.37236
G1 X90.569 Y113.621 E.01922
G1 X90.706 Y112.846 E.01878
G1 X90.93 Y112.098 E.01863
G1 X91.373 Y111.126 E.02549
G1 X91.838 Y110.381 E.02096
G1 X92.332 Y109.769 E.01877
G1 X92.81 Y109.279 E.01633
G1 X93.238 Y108.604 E.01907
G1 X93.677 Y108.057 E.01674
G1 X94.103 Y107.627 E.01444
G1 X94.395 Y107.916 F9000
G1 E0 F3000
G1 X94.449 Y107.861 E.00184
G1 X94.961 Y107.442 E.01579
G1 X95.513 Y107.079 E.01576
G1 X96.101 Y106.775 E.01579
G1 X96.716 Y106.534 E.01576
G1 X97.354 Y106.358 E.01579
G1 X98.004 Y106.25 E.01572
G1 X98.751 Y106.208 E.01785
G1 X100.543 Y106.208 E.04276
G1 X101.23 Y106.243 E.01641
G1 X101.883 Y106.346 E.01577
G1 X102.522 Y106.516 E.01578
G1 X103.14 Y106.752 E.01579
G1 X103.73 Y107.051 E.01578
G1 X104.285 Y107.409 E.01576
G1 X104.569 Y107.637 E.00869
G1 X104.754 Y107.746 E.00512
G1 X104.954 Y107.82 E.00509
G1 X105.091 Y107.841 E.00331
G1 X105.365 Y107.837 E.00654
G1 X105.533 Y107.799 E.00411
G1 X105.774 Y107.685 E.00636
G1 X106.091 Y107.442 E.00953
G1 X106.644 Y107.079 E.01578
G1 X107.231 Y106.775 E.01577
G1 X107.847 Y106.534 E.01578
G1 X108.484 Y106.358 E.01577
G1 X109.134 Y106.25 E.01572
G1 X109.882 Y106.208 E.01788
G1 X110.479 Y106.208 E.01425
G1 X110.761 Y106.158 E.00683
G1 X110.893 Y106.109 E.00336
G1 X111.023 Y106.032 E.00361
G1 X111.246 Y105.835 E.0071
G1 X111.339 Y105.716 E.0036
G1 X111.441 Y105.503 E.00564
G1 X111.485 Y105.35 E.0038
G1 X111.525 Y104.986 E.00874
G1 X111.674 Y104.262 E.01764
G1 X111.906 Y103.561 E.01762
G1 X112.217 Y102.894 E.01756
G1 X112.664 Y102.181 E.02008
G1 X113.206 Y101.505 E.02067
G1 X113.733 Y100.993 E.01753
G1 X114.32 Y100.543 E.01765
G1 X114.954 Y100.164 E.01763
G1 X115.626 Y99.863 E.01757
G1 X116.455 Y99.608 E.0207
G1 X116.732 Y99.543 E.00679
G1 X117.489 Y99.409 E.01834
G1 X118.252 Y99.365 E.01824
G1 X123.118 Y99.362 E.11611
G1 X124.058 Y99.41 E.02246
G1 X125.17 Y99.536 E.0267
G1 X130.516 Y99.534 E.12756
G1 X131.506 Y99.412 E.0238
G1 X132.457 Y99.362 E.02272
G1 X137.3 Y99.362 E.11556
G1 X138.069 Y99.407 E.01838
