; generated by AnkerMake Studio 1.5.22 on 2024-07-21 at 10:18:50 UTC

;MINX:65.697
;MINY:93.397
;MINZ:0.14
;MAXX:169.303
;MAXY:180.118
;MAXZ:17.74

; filament_type = "AnkerMake PLA+ Basic"
;Filament Name:AnkerMake PLA+ Basic
;Machine Name:AnkerMake M5
;Profile Name:Precision - M5 0.4mm - PLA+ Basic
;multi_model:true
;support_enable:true
;damaged:false
;repaired:false
;adhesion_type:auto_brim
;perimeter_flow_ratio:1
;Machine Nozzle Size:0.4
;Print Mode:Precision - M5 0.4mm - PLA+ Basic
;Filament weight: 10.7474g
;Filament used: 3603.42mm
;Layer height: 0.16
;material_print_temperature_layer_0: 230
;speed_infill: 250
;speed_wall_0: 75
;speed_wall_x: 150
;acceleration_print: 4000
;acceleration_travel: 4000
;MAXSPEED:30000
;TIME:3218.28s

;
;
; PRINT_COMPATIBLE
;  P_PRECISION
;  F_PLA__Basic
; 

; external perimeters extrusion width = 0.44mm
; perimeters extrusion width = 0.40mm
; infill extrusion width = 0.40mm
; solid infill extrusion width = 0.40mm
; top infill extrusion width = 0.30mm
; support material extrusion width = 0.30mm
; first layer extrusion width = 0.44mm

; external perimeters extrusion width = 0.44mm
; perimeters extrusion width = 0.40mm
; infill extrusion width = 0.40mm
; solid infill extrusion width = 0.40mm
; top infill extrusion width = 0.30mm
; support material extrusion width = 0.30mm
; first layer extrusion width = 0.44mm

; external perimeters extrusion width = 0.44mm
; perimeters extrusion width = 0.40mm
; infill extrusion width = 0.40mm
; solid infill extrusion width = 0.40mm
; top infill extrusion width = 0.30mm
; support material extrusion width = 0.30mm
; first layer extrusion width = 0.44mm

; external perimeters extrusion width = 0.44mm
; perimeters extrusion width = 0.40mm
; infill extrusion width = 0.40mm
; solid infill extrusion width = 0.40mm
; top infill extrusion width = 0.30mm
; support material extrusion width = 0.30mm
; first layer extrusion width = 0.44mm

; external perimeters extrusion width = 0.44mm
; perimeters extrusion width = 0.40mm
; infill extrusion width = 0.40mm
; solid infill extrusion width = 0.40mm
; top infill extrusion width = 0.30mm
; support material extrusion width = 0.30mm
; first layer extrusion width = 0.44mm

M73 P0 R53
;TYPE:Custom
M104 S230 ; set final nozzle temp
M190 S65 ; set and wait for bed temp to stabilize
M109 S230 ; wait for nozzle temp to stabilize
G28 ;Home
M4899 T3

;LAYER_COUNT:111
G21 ; set units to millimeters
G90 ; use absolute coordinates
M83 ; use relative distances for extrusion
; Filament gcode
M107
;LAYER_CHANGE
;Z:0.14
;HEIGHT:0.14
;BEFORE_LAYER_CHANGE
;0.14
;LAYER:1
G1 E-3 F3600
;AFTER_LAYER_CHANGE
G92 E0
M205 X10 Y10
M205 E3
M204 T4000
G17
G3 Z.14 I-.336 J.262 P1  F7800
G1 X69.691 Y89.51
G1 E3 F3600
M204 P2500
;TYPE:Skirt/Brim
;WIDTH:0.44
G1 E0 F3000
G1 X71.235 Y88.428 E.04499
G1 X72.808 Y87.607 E.04234
G1 X74.532 Y86.973 E.04383
G1 X76.325 Y86.569 E.04386
G1 X78.508 Y86.391 E.05226
G1 X152.494 Y86.391 E1.76542
G1 X157.22 Y86.415 E.11277
G1 X159.327 Y86.686 E.05069
G1 X161.538 Y87.336 E.05499
G1 X162.848 Y87.916 E.03419
G1 X164.113 Y88.643 E.03481
G1 X165.875 Y89.989 E.05291
G1 X175.588 Y98.787 E.31271
G1 X176.59 Y99.88 E.03538
G1 X177.118 Y100.594 E.02119
G1 X177.916 Y101.966 E.03787
G1 X178.456 Y103.258 E.03341
G1 X178.891 Y104.953 E.04176
G1 X179.058 Y106.49 E.03689
G1 X179.073 Y118.052 E.27589
G1 X179.007 Y119.195 E.02732
G1 X178.732 Y120.759 E.03789
G1 X174.602 Y139.215 E.45128
G1 X174.124 Y140.781 E.03907
G1 X173.218 Y142.681 E.05023
G1 X147.744 Y185.203 E1.18278
G1 X146.713 Y186.621 E.04183
G1 X145.571 Y187.802 E.0392
G1 X144.353 Y188.773 E.03717
G1 X143.336 Y189.415 E.0287
G1 X142.444 Y189.866 E.02385
G1 X140.91 Y190.452 E.03918
G1 X139.743 Y190.744 E.0287
G1 X138.199 Y190.953 E.03718
G1 X110.296 Y191.083 E.66582
G1 X108.33 Y190.873 E.04718
G1 X97.631 Y188.828 E.25992
G1 X95.526 Y188.186 E.05251
G1 X94.05 Y187.466 E.03919
G1 X92.75 Y186.608 E.03717
G1 X91.826 Y185.839 E.02868
G1 X90.697 Y184.646 E.03919
G1 X90.089 Y183.852 E.02386
G1 X62.397 Y143.625 E1.16533
G1 X61.698 Y142.532 E.03096
G1 X61.068 Y141.276 E.03353
G1 X60.368 Y139.075 E.05511
G1 X56.27 Y120.773 E.44753
G1 X55.988 Y119.154 E.03921
G1 X55.927 Y118.052 E.02634
G1 X55.927 Y106.918 E.26567
G1 X55.993 Y105.775 E.02732
G1 X56.119 Y104.896 E.02119
G1 X56.518 Y103.359 E.03789
G1 X57.277 Y101.605 E.0456
G1 X57.979 Y100.467 E.03191
G1 X58.515 Y99.759 E.02119
G1 X59.482 Y98.718 E.0339
G1 X69.647 Y89.55 E.32663
M204 P4000
G1 X69.921 Y89.853 F7800
M204 P2500
G1 E0 F3000
G1 X69.941 Y89.835 E.00064
G1 X71.44 Y88.783 E.0437
G1 X72.966 Y87.985 E.04109
G1 X74.639 Y87.368 E.04255
G1 X76.38 Y86.975 E.04259
G1 X78.508 Y86.801 E.05095
G1 X152.493 Y86.801 E1.7654
G1 X157.193 Y86.824 E.11215
G1 X159.25 Y87.089 E.04949
G1 X161.382 Y87.715 E.05302
G1 X162.668 Y88.285 E.03357
G1 X163.886 Y88.984 E.03351
G1 X165.606 Y90.298 E.05165
G1 X175.312 Y99.091 E.31251
G1 X176.279 Y100.147 E.03417
G1 X176.772 Y100.814 E.01979
G1 X177.542 Y102.135 E.03649
G1 X178.065 Y103.384 E.03231
G1 X178.49 Y105.038 E.04075
G1 X178.663 Y106.918 E.04505
G1 X178.663 Y118.052 E.26567
G1 X178.598 Y119.166 E.02663
G1 X178.331 Y120.672 E.0365
G1 X174.202 Y139.125 E.45121
G1 X173.481 Y141.277 E.05416
G1 X172.777 Y142.623 E.03625
G1 X147.392 Y184.992 E1.17856
G1 X146.404 Y186.351 E.04009
G1 X145.288 Y187.506 E.03832
G1 X144.127 Y188.431 E.03542
G1 X143.142 Y189.054 E.02781
G1 X142.283 Y189.489 E.02298
G1 X140.783 Y190.062 E.03831
G1 X139.652 Y190.344 E.02781
G1 X138.181 Y190.543 E.03542
G1 X110.314 Y190.673 E.66496
G1 X108.406 Y190.47 E.04578
G1 X97.722 Y188.428 E.25955
G1 X95.688 Y187.809 E.05073
G1 X94.245 Y187.105 E.03831
G1 X93.006 Y186.287 E.03543
G1 X92.109 Y185.543 E.02781
G1 X91.006 Y184.376 E.03832
G1 X90.421 Y183.611 E.02298
G1 X62.735 Y143.393 E1.16507
G1 X62.059 Y142.338 E.0299
G1 X61.448 Y141.124 E.03243
G1 X60.768 Y138.986 E.05353
G1 X56.67 Y120.684 E.44753
G1 X56.397 Y119.126 E.03774
G1 X56.337 Y118.052 E.02567
G1 X56.337 Y106.918 E.26567
G1 X56.402 Y105.804 E.02663
G1 X56.52 Y104.983 E.01979
G1 X56.902 Y103.502 E.0365
G1 X57.423 Y102.218 E.03306
G1 X57.94 Y101.278 E.0256
G1 X58.823 Y100.029 E.0365
G1 X59.757 Y99.022 E.03277
G1 X69.876 Y89.894 E.32518
M204 P4000
G1 X70.15 Y90.197 F7800
M204 P2500
G1 E0 F3000
G1 X70.19 Y90.161 E.00128
G1 X71.645 Y89.139 E.04243
G1 X73.123 Y88.364 E.03982
G1 X74.746 Y87.764 E.04129
G1 X76.434 Y87.382 E.0413
G1 X78.508 Y87.211 E.04966
G1 X152.492 Y87.211 E1.76537
G1 X156.826 Y87.221 E.10342
G1 X158.783 Y87.417 E.04693
G1 X160.181 Y87.743 E.03425
G1 X161.226 Y88.094 E.0263
G1 X162.487 Y88.653 E.03291
G1 X163.659 Y89.326 E.03225
G1 X165.336 Y90.606 E.05034
G1 X175.037 Y99.395 E.31236
G1 X175.967 Y100.414 E.03292
G1 X176.426 Y101.034 E.01841
G1 X177.169 Y102.303 E.03509
G1 X177.675 Y103.509 E.03121
G1 X178.089 Y105.123 E.03976
G1 X178.253 Y106.918 E.04301
G1 X178.253 Y118.052 E.26567
G1 X178.189 Y119.137 E.02593
G1 X177.923 Y120.618 E.0359
G1 X173.801 Y139.036 E.45035
G1 X173.101 Y141.123 E.05253
G1 X172.426 Y142.412 E.03472
G1 X147.041 Y184.782 E1.17858
G1 X146.096 Y186.081 E.03833
G1 X145.005 Y187.209 E.03745
G1 X143.902 Y188.089 E.03367
G1 X142.948 Y188.693 E.02694
G1 X142.122 Y189.112 E.0221
G1 X140.656 Y189.672 E.03745
G1 X139.561 Y189.944 E.02692
G1 X138.163 Y190.134 E.03367
G1 X110.332 Y190.264 E.6641
G1 X108.483 Y190.067 E.04437
G1 X97.813 Y188.029 E.25921
G1 X95.849 Y187.432 E.04898
G1 X94.439 Y186.744 E.03744
G1 X93.261 Y185.967 E.03367
G1 X92.392 Y185.246 E.02694
G1 X91.314 Y184.106 E.03744
G1 X90.752 Y183.37 E.0221
G1 X63.072 Y143.16 E1.16483
G1 X62.42 Y142.144 E.02881
G1 X61.829 Y140.972 E.03132
G1 X61.168 Y138.896 E.05199
G1 X57.07 Y120.594 E.44753
G1 X56.806 Y119.098 E.03625
G1 X56.747 Y118.052 E.025
G1 X56.747 Y106.918 E.26567
G1 X56.811 Y105.833 E.02593
G1 X56.92 Y105.07 E.01839
G1 X57.286 Y103.646 E.03508
G1 X57.788 Y102.405 E.03194
G1 X58.284 Y101.502 E.02458
G1 X59.131 Y100.3 E.03509
G1 X60.032 Y99.326 E.03166
G1 X70.105 Y90.237 E.32374
M204 P4000
G1 E-3 F3600
G1 X73.611 Y94.613 F7800
G1 E3 F3600
M204 P2500
G1 E0 F3000
G1 X74.133 Y94.213 E.01569
G1 X74.455 Y94 E.00921
G1 X74.977 Y93.699 E.01438
G1 X75.29 Y93.544 E.00833
G1 X75.871 Y93.302 E.01502
G1 X76.218 Y93.183 E.00875
G1 X76.826 Y93.018 E.01503
G1 X77.186 Y92.946 E.00876
G1 X77.809 Y92.862 E.015
G1 X78.513 Y92.826 E.01682
G1 X79.854 Y92.826 E.032
G1 X82.529 Y92.827 E.06383
G1 X83.195 Y92.86 E.01591
G1 X83.81 Y92.94 E.0148
G1 X84.17 Y93.011 E.00876
G1 X84.779 Y93.173 E.01504
G1 X85.126 Y93.289 E.00873
G1 X85.734 Y93.541 E.0157
G1 X86.079 Y93.713 E.0092
G1 X86.601 Y94.015 E.01439
G1 X86.891 Y94.208 E.00831
G1 X87.392 Y94.591 E.01505
G1 X87.668 Y94.831 E.00873
G1 X88.132 Y95.297 E.01569
G1 X88.386 Y95.588 E.00922
G1 X88.753 Y96.066 E.01438
G1 X88.947 Y96.356 E.00833
G1 X89.263 Y96.9 E.01501
G1 X89.426 Y97.228 E.00874
G1 X89.677 Y97.836 E.0157
G1 X89.8 Y98.202 E.00921
G1 X89.955 Y98.785 E.01439
G1 X90.024 Y99.127 E.00833
G1 X90.108 Y99.749 E.01498
G1 X90.144 Y100.454 E.01684
G1 X90.144 Y118.337 E.42672
G1 X90.112 Y119.936 E.03816
G1 X90.035 Y121.355 E.03391
G1 X89.937 Y122.478 E.0269
G1 X89.875 Y123.122 E.01544
G1 X89.696 Y124.532 E.03391
G1 X89.441 Y126.11 E.03814
G1 X89.091 Y127.849 E.04233
G1 X88.717 Y129.402 E.03812
G1 X88.337 Y130.772 E.03392
G1 X87.802 Y132.464 E.04234
G1 X87.324 Y133.802 E.0339
G1 X86.736 Y135.288 E.03813
G1 X86.021 Y136.912 E.04234
G1 X85.404 Y138.185 E.03376
G1 X85.209 Y138.549 E.00985
G1 X85.045 Y138.824 E.00764
G1 X84.673 Y139.362 E.01561
G1 X84.475 Y139.61 E.00757
G1 X84.027 Y140.099 E.01582
G1 X83.798 Y140.318 E.00756
G1 X83.287 Y140.74 E.01581
G1 X83.029 Y140.925 E.00758
G1 X82.466 Y141.274 E.01581
G1 X82.185 Y141.422 E.00758
G1 X81.579 Y141.69 E.01581
G1 X81.281 Y141.798 E.00756
G1 X80.643 Y141.98 E.01583
G1 X80.333 Y142.046 E.00756
G1 X79.678 Y142.138 E.01578
G1 X79.003 Y142.174 E.01613
G1 X72.17 Y142.174 E.16305
G1 X71.446 Y142.124 E.01732
G1 X70.779 Y142.001 E.01618
G1 X70.448 Y141.903 E.00824
G1 X69.631 Y141.574 E.02102
G1 X69.12 Y141.278 E.01409
G1 X68.57 Y140.881 E.01619
G1 X68.281 Y140.618 E.00932
G1 X67.69 Y139.966 E.021
G1 X67.361 Y139.476 E.01408
G1 X67.039 Y138.878 E.01621
G1 X66.894 Y138.515 E.00933
G1 X66.649 Y137.671 E.02097
G1 X66.566 Y137.086 E.0141
G1 X66.539 Y136.409 E.01617
G1 X66.59 Y135.819 E.01413
G1 X66.715 Y135.153 E.01617
G1 X66.904 Y134.572 E.01458
G1 X67.1 Y134.103 E.01213
G1 X67.68 Y132.897 E.03193
G1 X68.182 Y131.75 E.02988
G1 X68.641 Y130.592 E.02972
G1 X69.061 Y129.412 E.02989
G1 X69.437 Y128.221 E.0298
G1 X69.788 Y126.95 E.03146
G1 X70.066 Y125.785 E.02858
G1 X70.312 Y124.565 E.0297
G1 X70.502 Y123.406 E.02802
G1 X70.512 Y123.248 E.00378
G1 X70.488 Y123.141 E.00262
G1 X70.43 Y123.032 E.00295
G1 X70.334 Y122.942 E.00314
G1 X70.14 Y122.874 E.00491
G1 X67.184 Y122.867 E.07054
G1 X66.507 Y122.818 E.0162
G1 X65.85 Y122.676 E.01604
G1 X65.218 Y122.44 E.0161
G1 X64.897 Y122.278 E.00858
G1 X64.246 Y121.863 E.01842
G1 X63.741 Y121.421 E.01601
G1 X63.304 Y120.912 E.01601
G1 X62.944 Y120.345 E.01603
G1 X62.666 Y119.73 E.0161
G1 X62.547 Y119.359 E.0093
G1 X62.407 Y118.698 E.01612
G1 X62.362 Y118.045 E.01562
G1 X62.362 Y106.925 E.26534
G1 X62.411 Y106.248 E.0162
G1 X62.553 Y105.591 E.01604
G1 X62.788 Y104.96 E.01607
G1 X62.997 Y104.554 E.0109
G1 X63.365 Y103.988 E.01611
G1 X63.808 Y103.483 E.01603
G1 X64.317 Y103.045 E.01602
G1 X64.884 Y102.685 E.01603
G1 X65.23 Y102.529 E.00906
G1 X65.296 Y102.482 E.00193
G1 X65.553 Y102.204 E.00903
G1 X65.828 Y101.991 E.0083
G1 X66.095 Y101.816 E.00762
G1 X66.463 Y101.619 E.00996
G1 X66.793 Y101.507 E.00832
G1 X67.103 Y101.428 E.00763
G1 X67.514 Y101.362 E.00993
G1 X67.864 Y101.365 E.00835
G1 X68.182 Y101.391 E.00761
G1 X68.592 Y101.463 E.00993
G1 X68.922 Y101.58 E.00835
G1 X69.214 Y101.709 E.00762
G1 X69.578 Y101.911 E.00993
G1 X69.764 Y102.059 E.00567
G1 X69.894 Y102.103 E.00327
G1 X70.507 Y102.096 E.01463
G1 X70.598 Y102.073 E.00224
G1 X70.718 Y102.012 E.00321
G1 X70.808 Y101.922 E.00304
G1 X70.874 Y101.755 E.00428
G1 X70.896 Y100.144 E.03844
G1 X70.92 Y99.777 E.00878
G1 X71 Y99.16 E.01485
G1 X71.071 Y98.8 E.00876
G1 X71.232 Y98.191 E.01503
G1 X71.35 Y97.843 E.00877
G1 X71.59 Y97.26 E.01504
G1 X71.751 Y96.931 E.00874
G1 X72.065 Y96.385 E.01503
G1 X72.268 Y96.079 E.00876
G1 X72.651 Y95.578 E.01505
G1 X72.892 Y95.302 E.00874
G1 X73.336 Y94.855 E.01503
G1 X73.566 Y94.653 E.0073
M204 P4000
G1 X73.837 Y94.96 F7800
M204 P2500
G1 E0 F3000
G1 X73.872 Y94.93 E.0011
G1 X74.371 Y94.547 E.01501
G1 X74.671 Y94.349 E.00858
G1 X75.171 Y94.06 E.01378
G1 X75.46 Y93.917 E.00769
G1 X76.016 Y93.685 E.01438
G1 X76.338 Y93.575 E.00812
G1 X76.92 Y93.418 E.01438
G1 X77.254 Y93.35 E.00813
G1 X77.847 Y93.271 E.01427
G1 X78.524 Y93.236 E.01618
G1 X79.854 Y93.236 E.03174
G1 X82.519 Y93.237 E.06359
G1 X83.158 Y93.269 E.01527
G1 X83.744 Y93.345 E.0141
G1 X84.078 Y93.41 E.00812
G1 X84.661 Y93.565 E.01439
G1 X84.982 Y93.673 E.00808
G1 X85.563 Y93.915 E.01502
G1 X85.885 Y94.075 E.00858
G1 X86.385 Y94.364 E.01378
G1 X86.653 Y94.542 E.00768
G1 X87.132 Y94.908 E.01438
G1 X87.387 Y95.131 E.00808
G1 X87.832 Y95.576 E.01502
G1 X88.068 Y95.847 E.00857
G1 X88.419 Y96.305 E.01377
G1 X88.599 Y96.573 E.0077
G1 X88.902 Y97.095 E.0144
G1 X89.052 Y97.398 E.00807
G1 X89.293 Y97.98 E.01503
G1 X89.407 Y98.32 E.00856
G1 X89.556 Y98.878 E.01378
G1 X89.62 Y99.194 E.00769
G1 X89.699 Y99.787 E.01427
G1 X89.734 Y100.465 E.0162
G1 X89.734 Y118.333 E.42636
G1 X89.702 Y119.921 E.0379
G1 X89.626 Y121.326 E.03357
G1 X89.528 Y122.441 E.02671
G1 X89.468 Y123.077 E.01524
G1 X89.29 Y124.474 E.0336
G1 X89.038 Y126.036 E.03775
G1 X88.691 Y127.761 E.04199
G1 X88.32 Y129.299 E.03775
G1 X87.944 Y130.655 E.03358
G1 X87.413 Y132.333 E.042
G1 X86.94 Y133.658 E.03357
G1 X86.358 Y135.13 E.03777
G1 X85.649 Y136.74 E.04198
G1 X85.039 Y137.999 E.03338
G1 X84.7 Y138.602 E.01651
G1 X84.343 Y139.118 E.01497
G1 X84.163 Y139.344 E.00689
G1 X83.735 Y139.812 E.01513
G1 X83.525 Y140.011 E.0069
G1 X83.037 Y140.416 E.01513
G1 X82.802 Y140.584 E.00689
G1 X82.262 Y140.918 E.01515
G1 X82.007 Y141.052 E.00687
G1 X81.426 Y141.309 E.01516
G1 X81.154 Y141.407 E.0069
G1 X80.544 Y141.582 E.01514
G1 X80.262 Y141.642 E.00688
G1 X79.639 Y141.73 E.01501
G1 X78.993 Y141.764 E.01544
G1 X72.185 Y141.765 E.16245
G1 X71.497 Y141.716 E.01646
G1 X70.874 Y141.602 E.01511
G1 X70.583 Y141.515 E.00725
G1 X69.812 Y141.205 E.01983
G1 X69.344 Y140.934 E.0129
G1 X68.828 Y140.562 E.01518
G1 X68.571 Y140.328 E.00829
G1 X68.014 Y139.713 E.0198
G1 X67.712 Y139.264 E.01291
G1 X67.411 Y138.704 E.01517
G1 X67.282 Y138.382 E.00828
G1 X67.05 Y137.585 E.01981
G1 X66.975 Y137.049 E.01291
G1 X66.95 Y136.418 E.01507
G1 X66.997 Y135.874 E.01303
G1 X67.113 Y135.254 E.01505
G1 X67.289 Y134.714 E.01355
G1 X67.474 Y134.27 E.01148
G1 X68.055 Y133.062 E.03199
G1 X68.563 Y131.901 E.03024
G1 X69.028 Y130.73 E.03006
G1 X69.447 Y129.55 E.02988
G1 X69.833 Y128.33 E.03053
G1 X70.186 Y127.045 E.0318
G1 X70.468 Y125.866 E.02893
G1 X70.714 Y124.646 E.0297
G1 X70.912 Y123.431 E.02937
G1 X70.921 Y123.273 E.00378
G1 X70.888 Y123.052 E.00533
G1 X70.792 Y122.839 E.00557
G1 X70.615 Y122.643 E.0063
G1 X70.47 Y122.556 E.00403
G1 X70.276 Y122.487 E.00491
G1 X70.141 Y122.464 E.00327
G1 X67.199 Y122.457 E.0702
G1 X66.565 Y122.412 E.01517
G1 X65.966 Y122.281 E.01463
G1 X65.382 Y122.064 E.01487
G1 X65.1 Y121.922 E.00753
G1 X64.493 Y121.534 E.01719
G1 X64.034 Y121.132 E.01456
G1 X63.634 Y120.667 E.01464
G1 X63.306 Y120.149 E.01463
G1 X63.05 Y119.582 E.01484
G1 X62.944 Y119.254 E.00823
G1 X62.814 Y118.641 E.01495
G1 X62.772 Y118.031 E.01459
G1 X62.772 Y106.94 E.26465
G1 X62.817 Y106.306 E.01517
G1 X62.948 Y105.707 E.01463
G1 X63.164 Y105.125 E.01481
G1 X63.352 Y104.76 E.0098
G1 X63.693 Y104.236 E.01492
G1 X64.097 Y103.775 E.01463
G1 X64.562 Y103.376 E.01462
G1 X65.079 Y103.047 E.01462
G1 X65.469 Y102.862 E.0103
G1 X65.597 Y102.76 E.00391
G1 X65.831 Y102.507 E.00822
G1 X66.067 Y102.325 E.00711
G1 X66.305 Y102.168 E.0068
G1 X66.626 Y101.996 E.00869
G1 X67.186 Y101.83 E.01394
G1 X67.545 Y101.772 E.00868
G1 X68.129 Y101.798 E.01395
